X: 20061
T: Low down in the Broom
%R: march, reel
B: James Oswald "The Caledonian Pocket Companion" v.2 p.6 #1
Z: 2019 John Chambers <jc:trillian.mit.edu>
M: C
L: 1/16
K: D
"_Slow"d2 |\
A2D2E2F2 A3dA2F2 | E3DE2F2 e6{de}f2 |\
D4E2F2 d3cB2A2 | (B2A2)(B2c2) d6A2 |\
(d2{de}f2) e2d2 (B2{Bc}d2) A2F2 | A4 g3f {f}e4 a3g |
{fg}a4 e3d (B2{AB}d2) {B}A2F2 | A4 B2c2 d6 :: (dB) |\
(AF)(ED) D2(EF) A3B (dB)(AF) | (AF)(ED) E2F2 e6 (de) |\
f2D2 (EDEF) | (AB)(dB) dBAF |
(A2{ef}g2) (fe)(dc) d6 A2 |\
d3e {g}f2(dc) B2(AB) (dB)(AF) | A3B (df)(af) {f}e4 f3a |\
{fa}b4 a2f2 (e2d2) (Bd)(AF) | A4 (ge)(dc) {c}d6 :|
